src/icons/hds/ui/map.svg

<svg xmlns="http://www.w3.org/2000/svg" width="24" height="24" viewBox="0 0 24 24">
  <g fill="none" fill-rule="evenodd">
    <rect width="24" height="24"/>
    <path fill="currentColor" d="M22,4.11257411 L22,17.7207592 L15,20.0540926 L9,18.054 L2,20.3874259 L2,6.77924078 L9,4.44590745 L15,6.4455 L22,4.11257411 Z M8,6.88657411 L4,8.2205 L4,17.612 L8,16.2785741 L8,6.88657411 Z M10,6.88657411 L10,16.2785741 L14,17.6115741 L14,8.22057411 L10,6.88657411 Z M20,6.887 L16,8.22057411 L16,17.6115741 L20,16.279 L20,6.887 Z"/>
  </g>
</svg>

<svg viewBox="0 0 24 24" role="img" xmlns="http://www.w3.org/2000/svg"><g fill="none" fill-rule="evenodd"><path d="M0 0h24v24H0z"/><path d="M22 4.113V17.72l-7 2.333-6-2-7 2.333V6.78l7-2.333 6 2 7-2.333zM8 6.887L4 8.22v9.392l4-1.333V6.887zm2 0v9.392l4 1.333V8.22l-4-1.334zm10 0l-4 1.334v9.39l4-1.332V6.887z" fill="currentColor"/></g></svg>
